<?xml version="1.0" encoding="UTF-8"?>
<map version="1.10" tiledversion="1.12.2" orientation="orthogonal" renderorder="right-down" width="30" height="16" tilewidth="64" tileheight="64" infinite="1" nextlayerid="10" nextobjectid="26">
 <tileset firstgid="1" source="train1-tiles.tsx"/>
 <layer id="1" name="Background" width="30" height="16">
  <data encoding="csv">
   <chunk x="0" y="0" width="16" height="16">
1,1,1,1,1,1,1,1,1,1,1,1,1,1,1,1,
1,1,1,1,1,1,1,1,1,1,1,1,1,1,1,1,
1,1,1,1,1,1,1,1,1,1,1,1,1,1,1,1,
1,1,1,1,1,1,1,1,1,1,1,1,1,1,1,1,
1,1,1,1,1,1,1,1,1,1,1,1,1,1,1,1,
1,1,1,1,1,1,1,1,1,1,1,1,1,1,1,1,
1,1,1,1,1,1,1,1,1,1,1,1,1,1,1,1,
1,1,1,1,1,1,1,1,1,1,1,1,1,1,1,1,
1,1,1,1,1,1,1,1,1,1,1,1,1,1,1,1,
1,1,1,1,1,1,1,1,1,1,1,1,1,1,1,1,
1,1,1,1,1,1,1,1,1,1,1,1,1,1,1,1,
1,1,1,1,1,1,1,1,1,1,1,1,1,1,1,1,
1,1,1,1,1,1,1,1,1,1,1,1,1,1,1,1,
1,1,1,1,1,1,1,1,1,1,1,1,1,1,1,1,
1,1,1,1,1,1,1,1,1,1,1,1,1,1,1,1,
1,1,1,1,1,1,1,1,1,1,1,1,1,1,1,1
</chunk>
   <chunk x="16" y="0" width="16" height="16">
1,1,1,1,1,1,1,1,1,1,1,1,1,1,0,0,
1,1,1,1,1,1,1,1,1,1,1,1,1,1,0,0,
1,1,1,1,1,1,1,1,1,1,1,1,1,1,0,0,
1,1,1,1,1,1,1,1,1,1,1,1,1,1,0,0,
1,1,1,1,1,1,1,1,1,1,1,1,1,1,0,0,
1,1,1,1,1,1,1,1,1,1,1,1,1,1,0,0,
1,1,1,1,1,1,1,1,1,1,1,1,1,1,0,0,
1,1,1,1,1,1,1,1,1,1,1,1,1,1,0,0,
1,1,1,1,1,1,1,1,1,1,1,1,1,1,0,0,
1,1,1,1,1,1,1,1,1,1,1,1,1,1,0,0,
1,1,1,1,1,1,1,1,1,1,1,1,1,1,0,0,
1,1,1,1,1,1,1,1,1,1,1,1,1,1,0,0,
1,1,1,1,1,1,1,1,1,1,1,1,1,1,0,0,
1,1,1,1,1,1,1,1,1,1,1,1,1,1,0,0,
1,1,1,1,1,1,1,1,1,1,1,1,1,1,0,0,
1,1,1,1,1,1,1,1,1,1,1,1,1,1,0,0
</chunk>
  </data>
 </layer>
 <layer id="2" name="Wall" width="30" height="16">
  <data encoding="csv">
   <chunk x="0" y="0" width="16" height="16">
0,0,0,0,0,0,0,0,0,0,0,0,0,0,0,0,
0,0,0,0,0,0,0,0,0,0,0,0,0,0,0,0,
0,0,0,0,0,0,0,0,0,0,0,0,0,0,0,0,
9,9,9,9,4,4,4,4,4,4,4,4,4,4,4,4,
10,10,10,9,4,4,8,4,8,4,4,8,4,8,4,4,
9,9,9,9,4,4,4,4,4,4,4,4,4,4,4,4,
9,9,9,9,4,4,4,4,4,4,4,4,4,4,4,4,
9,9,9,9,4,4,4,4,4,4,4,4,4,4,4,4,
0,0,0,0,0,0,0,0,0,0,0,0,0,0,0,0,
0,0,0,0,0,0,0,0,0,0,0,0,0,0,0,0,
0,0,0,0,0,0,0,0,0,0,0,0,0,0,0,0,
0,0,0,0,0,0,0,0,0,0,0,0,0,0,0,0,
0,0,0,0,0,0,0,0,0,0,0,0,0,0,0,0,
0,0,0,0,0,0,0,0,0,0,0,0,0,0,0,0,
0,0,0,0,0,0,0,0,0,0,0,0,0,0,0,0,
0,0,0,0,0,0,0,0,0,0,0,0,0,0,0,0
</chunk>
   <chunk x="16" y="0" width="16" height="16">
0,0,0,0,0,0,0,0,0,0,0,0,0,0,0,0,
0,0,0,0,0,0,0,0,0,0,0,0,0,0,0,0,
0,0,0,0,0,0,0,0,0,0,0,0,0,0,0,0,
4,4,4,4,4,4,4,4,4,4,9,9,9,9,0,0,
8,4,8,4,4,8,4,8,4,4,9,9,9,9,0,0,
4,4,4,4,4,4,4,4,4,4,9,9,9,9,0,0,
4,4,4,4,4,4,4,4,4,4,9,9,9,9,0,0,
4,4,4,4,4,4,4,4,4,4,9,9,9,9,0,0,
0,0,0,0,0,0,0,0,0,0,0,0,0,0,0,0,
0,0,0,0,0,0,0,0,0,0,0,0,0,0,0,0,
0,0,0,0,0,0,0,0,0,0,0,0,0,0,0,0,
0,0,0,0,0,0,0,0,0,0,0,0,0,0,0,0,
0,0,0,0,0,0,0,0,0,0,0,0,0,0,0,0,
0,0,0,0,0,0,0,0,0,0,0,0,0,0,0,0,
0,0,0,0,0,0,0,0,0,0,0,0,0,0,0,0,
0,0,0,0,0,0,0,0,0,0,0,0,0,0,0,0
</chunk>
  </data>
 </layer>
 <layer id="3" name="Floor" width="30" height="16">
  <data encoding="csv">
   <chunk x="0" y="0" width="16" height="16">
0,0,0,0,0,0,0,0,0,0,0,0,0,0,0,0,
0,0,0,0,0,0,0,0,0,0,0,0,0,0,0,0,
0,0,0,0,0,0,0,0,0,0,0,0,0,0,0,0,
0,0,0,0,0,0,0,0,0,0,0,0,0,0,0,0,
0,0,0,0,0,0,0,0,0,0,0,0,0,0,0,0,
0,0,0,0,0,0,0,0,0,0,0,0,0,0,0,0,
0,0,0,0,0,0,0,0,0,0,0,0,0,0,0,0,
0,0,0,0,0,0,0,0,0,0,0,0,0,0,0,0,
49,49,49,20,20,20,20,20,20,20,20,20,20,20,20,20,
49,49,49,18,17,17,18,17,17,18,17,17,18,17,17,18,
49,49,49,17,17,56,17,17,17,17,56,17,17,17,17,56,
0,0,0,0,0,0,0,0,0,0,0,0,0,0,0,0,
0,0,0,0,0,0,0,0,0,0,0,0,0,0,0,0,
0,0,0,0,0,0,0,0,0,0,0,0,0,0,0,0,
0,0,0,0,0,0,0,0,0,0,0,0,0,0,0,0,
0,0,0,0,0,0,0,0,0,0,0,0,0,0,0,0
</chunk>
   <chunk x="16" y="0" width="16" height="16">
0,0,0,0,0,0,0,0,0,0,0,0,0,0,0,0,
0,0,0,0,0,0,0,0,0,0,0,0,0,0,0,0,
0,0,0,0,0,0,0,0,0,0,0,0,0,0,0,0,
0,0,0,0,0,0,0,0,0,0,0,0,0,0,0,0,
0,0,0,0,0,0,0,0,0,0,0,0,0,0,0,0,
0,0,0,0,0,0,0,0,0,0,0,0,0,0,0,0,
0,0,0,0,0,0,0,0,0,0,0,0,0,0,0,0,
0,0,0,0,0,0,0,0,0,0,0,0,0,0,0,0,
20,20,20,20,20,20,20,20,20,20,20,20,20,20,0,0,
17,17,18,17,17,18,17,17,18,17,17,18,17,17,0,0,
17,17,17,17,56,17,17,17,17,56,17,17,17,17,0,0,
0,0,0,0,0,0,0,0,0,0,0,0,0,0,0,0,
0,0,0,0,0,0,0,0,0,0,0,0,0,0,0,0,
0,0,0,0,0,0,0,0,0,0,0,0,0,0,0,0,
0,0,0,0,0,0,0,0,0,0,0,0,0,0,0,0,
0,0,0,0,0,0,0,0,0,0,0,0,0,0,0,0
</chunk>
  </data>
 </layer>
 <layer id="4" name="Carriage" width="30" height="16">
  <data encoding="csv">
   <chunk x="0" y="0" width="16" height="16">
0,0,0,0,0,0,0,0,0,0,0,0,0,0,0,0,
0,0,0,0,0,0,0,0,0,0,0,0,0,0,0,0,
0,0,0,51,3,2,2,2,2,3,2,2,2,2,3,2,
0,0,0,0,33,0,0,0,0,33,0,0,0,0,33,0,
0,0,0,0,33,0,0,0,0,33,0,0,0,0,33,0,
0,0,0,0,33,0,0,0,0,33,0,0,0,0,33,0,
0,0,0,0,33,0,0,0,0,33,0,0,0,0,33,0,
0,0,0,0,33,0,0,0,0,33,0,0,0,0,33,0,
0,0,0,0,0,0,0,0,0,0,0,0,0,0,0,0,
0,0,0,0,0,0,0,0,0,0,0,0,0,0,0,0,
0,0,0,0,0,0,0,0,0,0,0,0,0,0,0,0,
50,50,50,22,22,22,22,22,22,22,22,22,22,22,22,22,
49,49,49,23,23,23,23,23,23,23,23,23,23,23,23,23,
49,49,49,23,23,23,23,23,23,23,23,23,23,23,23,23,
26,26,26,26,26,26,26,26,26,26,26,26,26,26,26,26,
0,0,0,0,0,0,0,0,0,0,0,0,0,0,0,0
</chunk>
   <chunk x="16" y="0" width="16" height="16">
0,0,0,0,0,0,0,0,0,0,0,0,0,0,0,0,
0,0,0,0,0,0,0,0,0,0,0,0,0,0,0,0,
2,2,2,3,2,2,2,2,3,2,3,2,2,52,0,0,
0,0,0,33,0,0,0,0,33,0,33,0,0,0,0,0,
0,0,0,33,0,0,0,0,33,0,33,0,0,0,0,0,
0,0,0,33,0,0,0,0,33,0,33,0,0,0,0,0,
0,0,0,33,0,0,0,0,33,0,33,0,0,0,0,0,
0,0,0,33,0,0,0,0,33,0,33,0,0,0,0,0,
0,0,0,0,0,0,0,0,0,0,0,0,0,0,0,0,
0,0,0,0,0,0,0,0,0,0,0,0,0,0,0,0,
0,0,0,0,0,0,0,0,0,0,0,0,0,0,0,0,
22,22,22,22,22,22,22,22,22,22,22,22,22,22,0,0,
23,23,23,23,23,23,23,23,23,23,23,23,23,23,0,0,
23,23,23,23,23,23,23,23,23,23,23,23,23,23,0,0,
26,26,26,26,26,26,26,26,26,26,26,26,26,26,0,0,
0,0,0,0,0,0,0,0,0,0,0,0,0,0,0,0
</chunk>
  </data>
 </layer>
 <layer id="5" name="Furniture" width="30" height="16">
  <data encoding="csv">
   <chunk x="0" y="0" width="16" height="16">
0,0,0,0,0,0,0,0,0,0,0,0,0,0,0,0,
0,0,0,0,0,0,0,0,0,0,0,0,0,0,0,0,
0,0,0,0,0,0,0,0,0,0,0,0,0,0,0,0,
0,0,0,0,0,0,0,0,0,0,0,0,0,0,0,0,
0,0,0,0,0,0,0,0,0,0,0,0,0,0,0,0,
0,0,0,0,0,0,0,0,0,0,0,0,0,0,0,0,
0,0,0,11,0,0,27,31,29,0,0,27,31,29,0,0,
0,0,0,12,0,0,28,32,30,0,0,28,32,30,0,0,
0,0,0,0,0,0,0,0,0,0,0,0,0,0,0,0,
0,0,0,0,0,0,0,0,0,0,0,0,0,0,0,0,
0,0,0,0,0,0,0,0,0,0,0,0,0,0,0,0,
0,0,0,0,0,0,0,0,0,0,0,0,0,0,0,0,
0,0,0,0,0,0,0,0,0,0,0,0,0,0,0,0,
0,0,0,0,0,0,0,0,0,0,0,0,0,0,0,0,
0,0,0,0,0,0,0,0,0,0,0,0,0,0,0,0,
0,0,0,0,0,0,0,0,0,0,0,0,0,0,0,0
</chunk>
   <chunk x="16" y="0" width="16" height="16">
0,0,0,0,0,0,0,0,0,0,0,0,0,0,0,0,
0,0,0,0,0,0,0,0,0,0,0,0,0,0,0,0,
0,0,0,0,0,0,0,0,0,0,0,0,0,0,0,0,
0,0,0,0,0,0,0,0,0,0,0,0,0,0,0,0,
0,0,0,0,0,0,0,0,0,0,0,0,0,0,0,0,
0,0,0,0,0,0,0,0,0,0,0,0,0,0,0,0,
27,31,29,0,0,27,31,29,0,0,0,44,46,0,0,0,
28,32,30,0,0,28,32,30,0,0,0,45,47,0,0,0,
0,0,0,0,0,0,0,0,0,0,0,0,0,0,0,0,
0,0,0,0,0,0,0,0,0,0,0,0,0,0,0,0,
0,0,0,0,0,0,0,0,0,0,0,0,0,0,0,0,
0,0,0,0,0,0,0,0,0,0,0,0,0,0,0,0,
0,0,0,0,0,0,0,0,0,0,0,0,0,0,0,0,
0,0,0,0,0,0,0,0,0,0,0,0,0,0,0,0,
0,0,0,0,0,0,0,0,0,0,0,0,0,0,0,0,
0,0,0,0,0,0,0,0,0,0,0,0,0,0,0,0
</chunk>
  </data>
 </layer>
 <layer id="6" name="Details" width="30" height="16">
  <data encoding="csv">
   <chunk x="0" y="0" width="16" height="16">
0,0,0,0,0,0,0,0,0,0,0,0,0,0,0,0,
0,0,0,0,0,0,0,0,0,0,0,0,0,0,0,0,
0,0,0,0,0,0,0,0,0,0,0,0,0,0,0,0,
0,39,0,0,0,0,14,55,14,0,42,14,55,14,0,42,
0,63,0,40,0,15,0,6,0,16,0,0,6,0,0,0,
0,0,38,0,53,15,0,61,0,16,0,0,0,0,53,0,
0,0,0,0,0,0,0,0,0,0,0,0,0,0,0,0,
0,0,0,0,0,0,0,0,0,0,0,0,54,0,0,0,
0,43,0,0,0,0,0,43,0,0,0,0,0,0,0,0,
0,0,0,0,0,0,0,60,0,0,0,0,60,0,0,0,
0,0,0,0,0,0,0,0,60,0,0,0,0,60,0,0,
0,0,0,0,0,0,0,0,0,0,0,0,0,0,0,0,
0,0,0,0,0,0,0,0,0,0,0,25,0,0,0,25,
0,0,0,0,0,24,24,0,0,0,0,0,0,0,0,0,
0,0,0,0,0,0,0,0,0,0,0,0,0,0,0,0,
0,0,0,0,0,0,0,0,0,0,0,0,0,0,0,0
</chunk>
   <chunk x="16" y="0" width="16" height="16">
0,0,0,0,0,0,0,0,0,0,0,0,0,0,0,0,
0,0,0,0,0,0,0,0,0,0,0,0,0,0,0,0,
0,0,0,0,0,0,0,0,0,0,0,0,0,0,0,0,
14,55,14,0,42,14,55,14,0,0,0,39,40,0,0,0,
0,6,0,0,15,0,6,0,16,41,0,62,62,0,0,0,
0,0,0,0,15,0,61,0,16,0,37,0,0,0,0,0,
0,0,0,0,0,0,0,0,0,0,38,0,0,0,0,0,
0,54,0,0,54,0,0,0,0,0,0,0,0,0,0,0,
0,0,43,0,0,0,0,0,0,43,0,0,0,0,0,0,
0,60,0,0,0,0,60,0,0,0,0,0,0,0,0,0,
0,0,60,0,0,0,0,60,0,0,0,0,0,0,0,0,
0,0,0,0,0,0,0,0,0,0,0,0,0,0,0,0,
0,0,0,25,0,0,0,0,0,0,0,0,0,0,0,0,
0,0,0,0,0,0,24,24,0,0,0,0,0,0,0,0,
0,0,0,0,0,0,0,0,0,0,0,0,0,0,0,0,
0,0,0,0,0,0,0,0,0,0,0,0,0,0,0,0
</chunk>
  </data>
 </layer>
 <objectgroup id="7" name="WalkableZones" visible="0">
  <object id="1" name="platform" type="WalkableZone" x="0" y="512" width="192" height="192"/>
  <object id="2" name="vestibule" type="WalkableZone" x="192" y="512" width="64" height="192"/>
  <object id="3" name="cabin" type="WalkableZone" x="256" y="512" width="1408" height="192"/>
  <object id="4" name="service" type="WalkableZone" x="1664" y="512" width="256" height="192"/>
 </objectgroup>
 <objectgroup id="8" name="GameplayAnchors" visible="0">
  <object id="5" name="journal_platform" type="ItemAnchor" x="96" y="608">
   <point/>
  </object>
  <object id="6" name="player_start" type="Spawn" x="224" y="608">
   <point/>
  </object>
  <object id="7" name="entrance" type="Door" x="224" y="544">
   <point/>
  </object>
  <object id="8" name="seat_01" type="PassengerSeat" x="416" y="480">
   <point/>
  </object>
  <object id="9" name="seat_02" type="PassengerSeat" x="544" y="480">
   <point/>
  </object>
  <object id="10" name="seat_03" type="PassengerSeat" x="736" y="480">
   <point/>
  </object>
  <object id="11" name="seat_04" type="PassengerSeat" x="864" y="480">
   <point/>
  </object>
  <object id="12" name="seat_05" type="PassengerSeat" x="1056" y="480">
   <point/>
  </object>
  <object id="13" name="seat_06" type="PassengerSeat" x="1184" y="480">
   <point/>
  </object>
  <object id="14" name="seat_07" type="PassengerSeat" x="1376" y="480">
   <point/>
  </object>
  <object id="15" name="seat_08" type="PassengerSeat" x="1504" y="480">
   <point/>
  </object>
  <object id="16" name="control_panel" type="Interactable" x="1696" y="416">
   <point/>
  </object>
  <object id="17" name="extinguisher" type="Interactable" x="1696" y="480">
   <point/>
  </object>
  <object id="18" name="service_counter" type="Interactable" x="1760" y="544">
   <point/>
  </object>
  <object id="19" name="toilet" type="Interactable" x="1824" y="544">
   <point/>
  </object>
  <object id="20" name="fire_scenario" type="ScenarioAnchor" x="1184" y="608">
   <point/>
  </object>
 </objectgroup>
 <objectgroup id="9" name="Collision" visible="0">
  <object id="21" name="seating_bay_1" type="Solid" x="384" y="384" width="192" height="128"/>
  <object id="22" name="seating_bay_2" type="Solid" x="704" y="384" width="192" height="128"/>
  <object id="23" name="seating_bay_3" type="Solid" x="1024" y="384" width="192" height="128"/>
  <object id="24" name="seating_bay_4" type="Solid" x="1344" y="384" width="192" height="128"/>
  <object id="25" name="service_fixtures" type="Solid" x="1728" y="384" width="128" height="128"/>
 </objectgroup>
</map>
