<?xml version="1.0" encoding="UTF-8"?>
<map version="1.10" tiledversion="1.12.2" orientation="orthogonal" renderorder="right-down" width="75" height="18" tilewidth="64" tileheight="64" infinite="1" nextlayerid="14" nextobjectid="126">
 <tileset firstgid="1" source="train2-interior.tsx"/>
 <tileset firstgid="49" source="train2-exterior.tsx"/>
 <tileset firstgid="97" source="train2-nose.tsx"/>
 <layer id="1" name="Void" width="75" height="18">
  <data encoding="csv">
   <chunk x="-16" y="0" width="16" height="16">
0,0,0,0,0,0,0,0,0,0,49,49,49,49,49,49,
0,0,0,0,0,0,0,0,0,0,49,49,49,49,49,49,
0,0,0,0,0,0,0,0,0,0,49,49,49,49,49,49,
0,0,0,0,0,0,0,0,0,0,49,49,49,49,49,49,
0,0,0,0,0,0,0,0,0,0,49,49,49,49,49,49,
0,0,0,0,0,0,0,0,0,0,49,49,49,49,49,49,
0,0,0,0,0,0,0,0,0,0,49,49,49,49,49,49,
0,0,0,0,0,0,0,0,0,0,49,49,49,49,49,49,
0,0,0,0,0,0,0,0,0,0,49,49,49,49,49,49,
0,0,0,0,0,0,0,0,0,0,49,49,49,49,49,49,
0,0,0,0,0,0,0,0,0,0,49,49,49,49,49,49,
0,0,0,0,0,0,0,0,0,0,49,49,49,49,49,49,
0,0,0,0,0,0,0,0,0,0,49,49,49,49,49,49,
0,0,0,0,0,0,0,0,0,0,49,49,49,49,49,49,
0,0,0,0,0,0,0,0,0,0,49,49,49,49,49,49,
0,0,0,0,0,0,0,0,0,0,49,49,49,49,49,49
</chunk>
   <chunk x="0" y="0" width="16" height="16">
49,49,49,49,49,49,49,49,49,49,49,49,49,49,49,49,
49,49,49,49,49,49,49,49,49,49,49,49,49,49,49,49,
49,49,49,49,49,49,49,49,49,49,49,49,49,49,49,49,
49,49,49,49,49,49,49,49,49,49,49,49,49,49,49,49,
49,49,49,49,49,49,49,49,49,49,49,49,49,49,49,49,
49,49,49,49,49,49,49,49,49,49,49,49,49,49,49,49,
49,49,49,49,49,49,49,49,49,49,49,49,49,49,49,49,
49,49,49,49,49,49,49,49,49,49,49,49,49,49,49,49,
49,49,49,49,49,49,49,49,49,49,49,49,49,49,49,49,
49,49,49,49,49,49,49,49,49,49,49,49,49,49,49,49,
49,49,49,49,49,49,49,49,49,49,49,49,49,49,49,49,
49,49,49,49,49,49,49,49,49,49,49,49,49,49,49,49,
49,49,49,49,49,49,49,49,49,49,49,49,49,49,49,49,
49,49,49,49,49,49,49,49,49,49,49,49,49,49,49,49,
49,49,49,49,49,49,49,49,49,49,49,49,49,49,49,49,
49,49,49,49,49,49,49,49,49,49,49,49,49,49,49,49
</chunk>
   <chunk x="16" y="0" width="16" height="16">
49,49,49,49,49,49,49,49,49,49,49,49,49,49,49,49,
49,49,49,49,49,49,49,49,49,49,49,49,49,49,49,49,
49,49,49,49,49,49,49,49,49,49,49,49,49,49,49,49,
49,49,49,49,49,49,49,49,49,49,49,49,49,49,49,49,
49,49,49,49,49,49,49,49,49,49,49,49,49,49,49,49,
49,49,49,49,49,49,49,49,49,49,49,49,49,49,49,49,
49,49,49,49,49,49,49,49,49,49,49,49,49,49,49,49,
49,49,49,49,49,49,49,49,49,49,49,49,49,49,49,49,
49,49,49,49,49,49,49,49,49,49,49,49,49,49,49,49,
49,49,49,49,49,49,49,49,49,49,49,49,49,49,49,49,
49,49,49,49,49,49,49,49,49,49,49,49,49,49,49,49,
49,49,49,49,49,49,49,49,49,49,49,49,49,49,49,49,
49,49,49,49,49,49,49,49,49,49,49,49,49,49,49,49,
49,49,49,49,49,49,49,49,49,49,49,49,49,49,49,49,
49,49,49,49,49,49,49,49,49,49,49,49,49,49,49,49,
49,49,49,49,49,49,49,49,49,49,49,49,49,49,49,49
</chunk>
   <chunk x="32" y="0" width="16" height="16">
49,49,49,49,49,49,49,49,49,49,49,49,49,49,49,49,
49,49,49,49,49,49,49,49,49,49,49,49,49,49,49,49,
49,49,49,49,49,49,49,49,49,49,49,49,49,49,49,49,
49,49,49,49,49,49,49,49,49,49,49,49,49,49,49,49,
49,49,49,49,49,49,49,49,49,49,49,49,49,49,49,49,
49,49,49,49,49,49,49,49,49,49,49,49,49,49,49,49,
49,49,49,49,49,49,49,49,49,49,49,49,49,49,49,49,
49,49,49,49,49,49,49,49,49,49,49,49,49,49,49,49,
49,49,49,49,49,49,49,49,49,49,49,49,49,49,49,49,
49,49,49,49,49,49,49,49,49,49,49,49,49,49,49,49,
49,49,49,49,49,49,49,49,49,49,49,49,49,49,49,49,
49,49,49,49,49,49,49,49,49,49,49,49,49,49,49,49,
49,49,49,49,49,49,49,49,49,49,49,49,49,49,49,49,
49,49,49,49,49,49,49,49,49,49,49,49,49,49,49,49,
49,49,49,49,49,49,49,49,49,49,49,49,49,49,49,49,
49,49,49,49,49,49,49,49,49,49,49,49,49,49,49,49
</chunk>
   <chunk x="48" y="0" width="16" height="16">
49,49,49,49,49,49,49,49,49,49,49,49,49,49,49,49,
49,49,49,49,49,49,49,49,49,49,49,49,49,49,49,49,
49,49,49,49,49,49,49,49,49,49,49,49,49,49,49,49,
49,49,49,49,49,49,49,49,49,49,49,49,49,49,49,49,
49,49,49,49,49,49,49,49,49,49,49,49,49,49,49,49,
49,49,49,49,49,49,49,49,49,49,49,49,49,49,49,49,
49,49,49,49,49,49,49,49,49,49,49,49,49,49,49,49,
49,49,49,49,49,49,49,49,49,49,49,49,49,49,49,49,
49,49,49,49,49,49,49,49,49,49,49,49,49,49,49,49,
49,49,49,49,49,49,49,49,49,49,49,49,49,49,49,49,
49,49,49,49,49,49,49,49,49,49,49,49,49,49,49,49,
49,49,49,49,49,49,49,49,49,49,49,49,49,49,49,49,
49,49,49,49,49,49,49,49,49,49,49,49,49,49,49,49,
49,49,49,49,49,49,49,49,49,49,49,49,49,49,49,49,
49,49,49,49,49,49,49,49,49,49,49,49,49,49,49,49,
49,49,49,49,49,49,49,49,49,49,49,49,49,49,49,49
</chunk>
   <chunk x="64" y="0" width="16" height="16">
49,49,49,49,49,49,49,49,49,49,49,49,0,0,0,0,
49,49,49,49,49,49,49,49,49,49,49,49,0,0,0,0,
49,49,49,49,49,49,49,49,49,49,49,49,0,0,0,0,
49,49,49,49,49,49,49,49,49,49,49,49,0,0,0,0,
49,49,49,49,49,49,49,49,49,49,49,49,0,0,0,0,
49,49,49,49,49,49,49,49,49,49,49,49,0,0,0,0,
49,49,49,49,49,49,49,49,49,49,49,49,0,0,0,0,
49,49,49,49,49,49,49,49,49,49,49,49,0,0,0,0,
49,49,49,49,49,49,49,49,49,49,49,49,0,0,0,0,
49,49,49,49,49,49,49,49,49,49,49,49,0,0,0,0,
49,49,49,49,49,49,49,49,49,49,49,49,0,0,0,0,
49,49,49,49,49,49,49,49,49,49,49,49,0,0,0,0,
49,49,49,49,49,49,49,49,49,49,49,49,0,0,0,0,
49,49,49,49,49,49,49,49,49,49,49,49,0,0,0,0,
49,49,49,49,49,49,49,49,49,49,49,49,0,0,0,0,
49,49,49,49,49,49,49,49,49,49,49,49,0,0,0,0
</chunk>
   <chunk x="-16" y="16" width="16" height="16">
0,0,0,0,0,0,0,0,0,0,49,49,49,49,49,49,
0,0,0,0,0,0,0,0,0,0,49,49,49,49,49,49,
0,0,0,0,0,0,0,0,0,0,0,0,0,0,0,0,
0,0,0,0,0,0,0,0,0,0,0,0,0,0,0,0,
0,0,0,0,0,0,0,0,0,0,0,0,0,0,0,0,
0,0,0,0,0,0,0,0,0,0,0,0,0,0,0,0,
0,0,0,0,0,0,0,0,0,0,0,0,0,0,0,0,
0,0,0,0,0,0,0,0,0,0,0,0,0,0,0,0,
0,0,0,0,0,0,0,0,0,0,0,0,0,0,0,0,
0,0,0,0,0,0,0,0,0,0,0,0,0,0,0,0,
0,0,0,0,0,0,0,0,0,0,0,0,0,0,0,0,
0,0,0,0,0,0,0,0,0,0,0,0,0,0,0,0,
0,0,0,0,0,0,0,0,0,0,0,0,0,0,0,0,
0,0,0,0,0,0,0,0,0,0,0,0,0,0,0,0,
0,0,0,0,0,0,0,0,0,0,0,0,0,0,0,0,
0,0,0,0,0,0,0,0,0,0,0,0,0,0,0,0
</chunk>
   <chunk x="0" y="16" width="16" height="16">
49,49,49,49,49,49,49,49,49,49,49,49,49,49,49,49,
49,49,49,49,49,49,49,49,49,49,49,49,49,49,49,49,
0,0,0,0,0,0,0,0,0,0,0,0,0,0,0,0,
0,0,0,0,0,0,0,0,0,0,0,0,0,0,0,0,
0,0,0,0,0,0,0,0,0,0,0,0,0,0,0,0,
0,0,0,0,0,0,0,0,0,0,0,0,0,0,0,0,
0,0,0,0,0,0,0,0,0,0,0,0,0,0,0,0,
0,0,0,0,0,0,0,0,0,0,0,0,0,0,0,0,
0,0,0,0,0,0,0,0,0,0,0,0,0,0,0,0,
0,0,0,0,0,0,0,0,0,0,0,0,0,0,0,0,
0,0,0,0,0,0,0,0,0,0,0,0,0,0,0,0,
0,0,0,0,0,0,0,0,0,0,0,0,0,0,0,0,
0,0,0,0,0,0,0,0,0,0,0,0,0,0,0,0,
0,0,0,0,0,0,0,0,0,0,0,0,0,0,0,0,
0,0,0,0,0,0,0,0,0,0,0,0,0,0,0,0,
0,0,0,0,0,0,0,0,0,0,0,0,0,0,0,0
</chunk>
   <chunk x="16" y="16" width="16" height="16">
49,49,49,49,49,49,49,49,49,49,49,49,49,49,49,49,
49,49,49,49,49,49,49,49,49,49,49,49,49,49,49,49,
0,0,0,0,0,0,0,0,0,0,0,0,0,0,0,0,
0,0,0,0,0,0,0,0,0,0,0,0,0,0,0,0,
0,0,0,0,0,0,0,0,0,0,0,0,0,0,0,0,
0,0,0,0,0,0,0,0,0,0,0,0,0,0,0,0,
0,0,0,0,0,0,0,0,0,0,0,0,0,0,0,0,
0,0,0,0,0,0,0,0,0,0,0,0,0,0,0,0,
0,0,0,0,0,0,0,0,0,0,0,0,0,0,0,0,
0,0,0,0,0,0,0,0,0,0,0,0,0,0,0,0,
0,0,0,0,0,0,0,0,0,0,0,0,0,0,0,0,
0,0,0,0,0,0,0,0,0,0,0,0,0,0,0,0,
0,0,0,0,0,0,0,0,0,0,0,0,0,0,0,0,
0,0,0,0,0,0,0,0,0,0,0,0,0,0,0,0,
0,0,0,0,0,0,0,0,0,0,0,0,0,0,0,0,
0,0,0,0,0,0,0,0,0,0,0,0,0,0,0,0
</chunk>
   <chunk x="32" y="16" width="16" height="16">
49,49,49,49,49,49,49,49,49,49,49,49,49,49,49,49,
49,49,49,49,49,49,49,49,49,49,49,49,49,49,49,49,
0,0,0,0,0,0,0,0,0,0,0,0,0,0,0,0,
0,0,0,0,0,0,0,0,0,0,0,0,0,0,0,0,
0,0,0,0,0,0,0,0,0,0,0,0,0,0,0,0,
0,0,0,0,0,0,0,0,0,0,0,0,0,0,0,0,
0,0,0,0,0,0,0,0,0,0,0,0,0,0,0,0,
0,0,0,0,0,0,0,0,0,0,0,0,0,0,0,0,
0,0,0,0,0,0,0,0,0,0,0,0,0,0,0,0,
0,0,0,0,0,0,0,0,0,0,0,0,0,0,0,0,
0,0,0,0,0,0,0,0,0,0,0,0,0,0,0,0,
0,0,0,0,0,0,0,0,0,0,0,0,0,0,0,0,
0,0,0,0,0,0,0,0,0,0,0,0,0,0,0,0,
0,0,0,0,0,0,0,0,0,0,0,0,0,0,0,0,
0,0,0,0,0,0,0,0,0,0,0,0,0,0,0,0,
0,0,0,0,0,0,0,0,0,0,0,0,0,0,0,0
</chunk>
   <chunk x="48" y="16" width="16" height="16">
49,49,49,49,49,49,49,49,49,49,49,49,49,49,49,49,
49,49,49,49,49,49,49,49,49,49,49,49,49,49,49,49,
0,0,0,0,0,0,0,0,0,0,0,0,0,0,0,0,
0,0,0,0,0,0,0,0,0,0,0,0,0,0,0,0,
0,0,0,0,0,0,0,0,0,0,0,0,0,0,0,0,
0,0,0,0,0,0,0,0,0,0,0,0,0,0,0,0,
0,0,0,0,0,0,0,0,0,0,0,0,0,0,0,0,
0,0,0,0,0,0,0,0,0,0,0,0,0,0,0,0,
0,0,0,0,0,0,0,0,0,0,0,0,0,0,0,0,
0,0,0,0,0,0,0,0,0,0,0,0,0,0,0,0,
0,0,0,0,0,0,0,0,0,0,0,0,0,0,0,0,
0,0,0,0,0,0,0,0,0,0,0,0,0,0,0,0,
0,0,0,0,0,0,0,0,0,0,0,0,0,0,0,0,
0,0,0,0,0,0,0,0,0,0,0,0,0,0,0,0,
0,0,0,0,0,0,0,0,0,0,0,0,0,0,0,0,
0,0,0,0,0,0,0,0,0,0,0,0,0,0,0,0
</chunk>
   <chunk x="64" y="16" width="16" height="16">
49,49,49,49,49,49,49,49,49,49,49,49,0,0,0,0,
49,49,49,49,49,49,49,49,49,49,49,49,0,0,0,0,
0,0,0,0,0,0,0,0,0,0,0,0,0,0,0,0,
0,0,0,0,0,0,0,0,0,0,0,0,0,0,0,0,
0,0,0,0,0,0,0,0,0,0,0,0,0,0,0,0,
0,0,0,0,0,0,0,0,0,0,0,0,0,0,0,0,
0,0,0,0,0,0,0,0,0,0,0,0,0,0,0,0,
0,0,0,0,0,0,0,0,0,0,0,0,0,0,0,0,
0,0,0,0,0,0,0,0,0,0,0,0,0,0,0,0,
0,0,0,0,0,0,0,0,0,0,0,0,0,0,0,0,
0,0,0,0,0,0,0,0,0,0,0,0,0,0,0,0,
0,0,0,0,0,0,0,0,0,0,0,0,0,0,0,0,
0,0,0,0,0,0,0,0,0,0,0,0,0,0,0,0,
0,0,0,0,0,0,0,0,0,0,0,0,0,0,0,0,
0,0,0,0,0,0,0,0,0,0,0,0,0,0,0,0,
0,0,0,0,0,0,0,0,0,0,0,0,0,0,0,0
</chunk>
  </data>
 </layer>
 <layer id="2" name="Station" width="75" height="18">
  <data encoding="csv">
   <chunk x="-16" y="0" width="16" height="16">
0,0,0,0,0,0,0,0,0,0,0,0,0,0,0,0,
0,0,0,0,0,0,0,0,0,0,0,0,0,0,0,0,
0,0,0,0,0,0,0,0,0,0,72,71,71,72,71,71,
0,0,0,0,0,0,0,0,0,0,72,71,71,72,71,71,
0,0,0,0,0,0,0,0,0,0,72,71,71,72,71,71,
0,0,0,0,0,0,0,0,0,0,72,71,71,72,71,71,
0,0,0,0,0,0,0,0,0,0,72,71,71,72,71,71,
0,0,0,0,0,0,0,0,0,0,72,71,71,72,71,71,
0,0,0,0,0,0,0,0,0,0,69,69,69,69,69,69,
0,0,0,0,0,0,0,0,0,0,69,69,69,69,69,69,
0,0,0,0,0,0,0,0,0,0,69,69,69,69,69,69,
0,0,0,0,0,0,0,0,0,0,69,69,69,69,69,69,
0,0,0,0,0,0,0,0,0,0,70,70,70,70,70,70,
0,0,0,0,0,0,0,0,0,0,96,96,96,96,96,96,
0,0,0,0,0,0,0,0,0,0,96,96,96,96,96,96,
0,0,0,0,0,0,0,0,0,0,68,68,68,68,68,68
</chunk>
  </data>
 </layer>
 <layer id="3" name="ExteriorShell" width="75" height="18">
  <data encoding="csv">
   <chunk x="0" y="0" width="16" height="16">
0,0,0,0,0,0,0,0,0,0,0,0,0,0,0,0,
0,0,0,0,0,0,0,0,0,0,0,0,0,0,0,0,
97,98,99,100,101,102,50,50,50,50,51,50,52,50,50,50,
103,104,105,106,107,108,0,0,0,0,0,0,0,0,0,0,
109,110,111,112,113,114,0,0,0,0,0,0,0,0,0,0,
115,116,117,118,119,120,0,0,0,0,0,0,0,0,0,0,
121,122,123,124,125,126,0,0,0,0,0,0,0,0,0,0,
127,128,129,130,131,132,0,0,0,0,0,0,0,0,0,0,
133,134,135,136,137,138,0,0,0,0,0,0,0,0,0,0,
139,140,141,142,143,144,0,0,0,0,0,0,0,0,0,0,
145,146,147,148,149,150,0,0,0,0,0,0,0,0,0,0,
151,152,153,154,155,156,0,0,0,0,0,0,0,0,0,0,
57,77,77,77,77,77,77,57,77,77,77,77,77,77,57,77,
65,64,64,64,64,64,64,64,65,64,64,64,64,64,64,64,
65,64,64,64,64,64,64,64,64,64,64,65,64,64,64,64,
68,68,68,68,68,68,68,68,68,68,68,68,68,68,68,68
</chunk>
   <chunk x="16" y="0" width="16" height="16">
0,0,0,0,0,0,0,0,0,0,0,0,0,0,0,0,
0,0,0,0,0,0,0,0,0,0,0,0,0,0,0,0,
50,50,50,50,51,50,50,50,52,50,50,50,50,50,51,50,
0,0,0,0,0,0,0,0,0,0,0,0,0,0,0,0,
0,0,0,0,0,0,0,0,0,0,0,0,0,0,0,0,
0,0,0,0,0,0,0,0,0,0,0,0,0,0,0,0,
0,0,0,0,0,0,0,0,0,0,0,0,0,0,0,0,
0,0,0,0,0,0,0,0,0,0,0,0,0,0,0,0,
0,0,0,0,0,0,0,0,0,0,0,0,0,0,0,0,
0,0,0,0,0,0,0,0,0,0,0,0,0,0,0,0,
0,0,0,0,0,0,0,0,0,0,0,0,0,0,0,0,
0,0,0,0,0,0,0,0,0,0,0,0,0,0,0,0,
77,77,77,77,77,57,77,77,77,77,77,77,57,77,77,77,
65,64,64,64,64,64,64,64,65,64,64,64,64,64,64,64,
64,64,64,64,64,64,65,64,64,64,64,64,64,64,64,64,
68,68,68,68,68,68,68,68,68,68,68,68,68,68,68,68
</chunk>
   <chunk x="32" y="0" width="16" height="16">
0,0,0,0,0,0,0,0,0,0,0,0,0,0,0,0,
0,0,0,0,0,0,0,0,0,0,0,0,0,0,0,0,
50,50,50,50,52,50,50,50,51,50,50,50,50,50,50,50,
0,0,0,0,0,0,0,0,0,0,0,0,0,0,0,0,
0,0,0,0,0,0,0,0,0,0,0,0,0,0,0,0,
0,0,0,0,0,0,0,0,0,0,0,0,0,0,0,0,
0,0,0,0,0,0,0,0,0,0,0,0,0,0,0,0,
0,0,0,0,0,0,0,0,0,0,0,0,0,0,0,0,
0,0,0,0,0,0,0,0,0,0,0,0,0,0,0,0,
0,0,0,0,0,0,0,0,0,0,0,0,0,0,0,0,
0,0,0,0,0,0,0,0,0,0,0,0,0,0,0,0,
0,0,0,0,0,0,0,0,0,0,0,0,0,0,0,0,
77,77,77,57,77,77,77,77,77,77,57,77,77,77,77,77,
65,64,64,64,64,64,64,64,65,64,64,64,64,64,64,64,
64,65,64,64,64,64,64,64,64,64,64,64,65,64,64,64,
68,68,68,68,68,68,68,68,68,68,68,68,68,68,68,68
</chunk>
   <chunk x="48" y="0" width="16" height="16">
0,0,0,0,0,0,0,0,0,0,0,0,0,0,0,0,
0,0,0,0,0,0,0,0,0,0,0,0,0,0,0,0,
52,50,51,50,50,50,50,50,50,50,50,50,52,50,50,50,
0,0,0,0,0,0,0,0,0,0,0,0,0,0,0,0,
0,0,0,0,0,0,0,0,0,0,0,0,0,0,0,0,
0,0,0,0,0,0,0,0,0,0,0,0,0,0,0,0,
0,0,0,0,0,0,0,0,0,0,0,0,0,0,0,0,
0,0,0,0,0,0,0,0,0,0,0,0,0,0,0,0,
0,0,0,0,0,0,0,0,0,0,0,0,0,0,0,0,
0,0,0,0,0,0,0,0,0,0,0,0,0,0,0,0,
0,0,0,0,0,0,0,0,0,0,0,0,0,0,0,0,
0,0,0,0,0,0,0,0,0,0,0,0,0,0,0,0,
77,57,77,77,77,77,77,77,57,77,77,77,77,77,77,57,
65,64,64,64,64,64,64,64,65,64,64,64,64,64,64,64,
64,64,64,64,64,64,64,65,64,64,64,64,64,64,64,64,
68,68,68,68,68,68,68,68,68,68,68,68,68,68,68,68
</chunk>
   <chunk x="64" y="0" width="16" height="16">
0,0,0,0,0,0,0,0,0,0,0,0,0,0,0,0,
0,0,0,0,0,0,0,0,0,0,0,0,0,0,0,0,
50,50,50,50,50,50,51,50,52,50,50,0,0,0,0,0,
0,0,0,0,0,0,0,0,0,0,0,0,0,0,0,0,
0,0,0,0,0,0,0,0,0,0,0,0,0,0,0,0,
0,0,0,0,0,0,0,0,0,0,0,0,0,0,0,0,
0,0,0,0,0,0,0,0,0,0,0,0,0,0,0,0,
0,0,0,0,0,0,0,0,0,0,0,0,0,0,0,0,
0,0,0,0,0,0,0,0,0,0,0,0,0,0,0,0,
0,0,0,0,0,0,0,0,0,0,0,0,0,0,0,0,
0,0,0,0,0,0,0,0,0,0,0,0,0,0,0,0,
0,0,0,0,0,0,0,0,0,0,0,0,0,0,0,0,
77,77,77,77,77,77,57,77,77,77,77,0,0,0,0,0,
65,64,64,64,64,64,64,64,65,64,64,0,0,0,0,0,
64,64,65,64,64,64,64,64,64,64,64,0,0,0,0,0,
68,68,68,68,68,68,68,68,68,68,68,0,0,0,0,0
</chunk>
  </data>
 </layer>
 <layer id="4" name="InteriorWall" width="75" height="18">
  <data encoding="csv">
   <chunk x="0" y="0" width="16" height="16">
0,0,0,0,0,0,0,0,0,0,0,0,0,0,0,0,
0,0,0,0,0,0,0,0,0,0,0,0,0,0,0,0,
0,0,0,0,0,0,0,0,0,0,0,0,0,0,0,0,
0,0,0,0,0,0,2,2,3,2,2,2,3,2,2,2,
0,0,0,0,0,0,7,7,7,7,7,9,47,9,10,8,
0,0,0,0,0,0,7,7,7,7,7,6,6,6,10,6,
0,0,0,0,0,0,7,7,7,7,7,6,6,6,10,6,
0,0,0,0,0,0,7,7,7,7,7,6,6,6,10,6,
0,0,0,0,0,0,0,0,0,0,0,0,0,0,0,0,
0,0,0,0,0,0,0,0,0,0,0,0,0,0,0,0,
0,0,0,0,0,0,0,0,0,0,0,0,0,0,0,0,
0,0,0,0,0,0,0,0,0,0,0,0,0,0,0,0,
0,0,0,0,0,0,0,0,0,0,0,0,0,0,0,0,
0,0,0,0,0,0,0,0,0,0,0,0,0,0,0,0,
0,0,0,0,0,0,0,0,0,0,0,0,0,0,0,0,
0,0,0,0,0,0,0,0,0,0,0,0,0,0,0,0
</chunk>
   <chunk x="16" y="0" width="16" height="16">
0,0,0,0,0,0,0,0,0,0,0,0,0,0,0,0,
0,0,0,0,0,0,0,0,0,0,0,0,0,0,0,0,
0,0,0,0,0,0,0,0,0,0,0,0,0,0,0,0,
3,2,2,2,3,2,2,2,3,2,2,2,3,2,2,2,
6,8,10,8,6,8,10,8,6,8,10,8,6,8,10,9,
6,6,10,6,6,6,10,6,6,6,10,6,6,6,10,6,
6,6,10,6,6,6,10,6,6,6,10,6,6,6,10,6,
6,6,10,6,6,6,10,6,6,6,10,6,6,6,10,6,
0,0,0,0,0,0,0,0,0,0,0,0,0,0,0,0,
0,0,0,0,0,0,0,0,0,0,0,0,0,0,0,0,
0,0,0,0,0,0,0,0,0,0,0,0,0,0,0,0,
0,0,0,0,0,0,0,0,0,0,0,0,0,0,0,0,
0,0,0,0,0,0,0,0,0,0,0,0,0,0,0,0,
0,0,0,0,0,0,0,0,0,0,0,0,0,0,0,0,
0,0,0,0,0,0,0,0,0,0,0,0,0,0,0,0,
0,0,0,0,0,0,0,0,0,0,0,0,0,0,0,0
</chunk>
   <chunk x="32" y="0" width="16" height="16">
0,0,0,0,0,0,0,0,0,0,0,0,0,0,0,0,
0,0,0,0,0,0,0,0,0,0,0,0,0,0,0,0,
0,0,0,0,0,0,0,0,0,0,0,0,0,0,0,0,
3,2,2,2,3,2,2,2,3,2,2,2,3,2,2,2,
6,9,10,8,47,8,10,8,6,8,10,8,6,8,10,8,
6,6,10,6,6,6,10,6,6,6,10,6,6,6,10,6,
6,6,10,6,6,6,10,6,6,6,10,6,6,6,10,6,
6,6,10,6,6,6,10,6,6,6,10,6,6,6,10,6,
0,0,0,0,0,0,0,0,0,0,0,0,0,0,0,0,
0,0,0,0,0,0,0,0,0,0,0,0,0,0,0,0,
0,0,0,0,0,0,0,0,0,0,0,0,0,0,0,0,
0,0,0,0,0,0,0,0,0,0,0,0,0,0,0,0,
0,0,0,0,0,0,0,0,0,0,0,0,0,0,0,0,
0,0,0,0,0,0,0,0,0,0,0,0,0,0,0,0,
0,0,0,0,0,0,0,0,0,0,0,0,0,0,0,0,
0,0,0,0,0,0,0,0,0,0,0,0,0,0,0,0
</chunk>
   <chunk x="48" y="0" width="16" height="16">
0,0,0,0,0,0,0,0,0,0,0,0,0,0,0,0,
0,0,0,0,0,0,0,0,0,0,0,0,0,0,0,0,
0,0,0,0,0,0,0,0,0,0,0,0,0,0,0,0,
3,2,2,2,3,2,2,2,3,2,2,2,3,2,2,2,
6,8,10,9,6,9,10,8,6,8,10,8,47,8,10,8,
6,6,10,6,6,6,10,6,6,6,10,6,6,6,10,6,
6,6,10,6,6,6,10,6,6,6,10,6,6,6,10,6,
6,6,10,6,6,6,10,6,6,6,10,6,6,6,10,6,
0,0,0,0,0,0,0,0,0,0,0,0,0,0,0,0,
0,0,0,0,0,0,0,0,0,0,0,0,0,0,0,0,
0,0,0,0,0,0,0,0,0,0,0,0,0,0,0,0,
0,0,0,0,0,0,0,0,0,0,0,0,0,0,0,0,
0,0,0,0,0,0,0,0,0,0,0,0,0,0,0,0,
0,0,0,0,0,0,0,0,0,0,0,0,0,0,0,0,
0,0,0,0,0,0,0,0,0,0,0,0,0,0,0,0,
0,0,0,0,0,0,0,0,0,0,0,0,0,0,0,0
</chunk>
   <chunk x="64" y="0" width="16" height="16">
0,0,0,0,0,0,0,0,0,0,0,0,0,0,0,0,
0,0,0,0,0,0,0,0,0,0,0,0,0,0,0,0,
0,0,0,0,0,0,0,0,0,0,0,0,0,0,0,0,
3,2,2,2,3,2,2,2,3,2,2,0,0,0,0,0,
6,8,10,6,7,6,7,6,7,6,7,0,0,0,0,0,
6,6,10,6,6,6,6,6,6,6,6,0,0,0,0,0,
6,6,10,7,7,7,7,7,7,7,7,0,0,0,0,0,
6,6,10,7,7,7,7,7,7,7,7,0,0,0,0,0,
0,0,0,0,0,0,0,0,0,0,0,0,0,0,0,0,
0,0,0,0,0,0,0,0,0,0,0,0,0,0,0,0,
0,0,0,0,0,0,0,0,0,0,0,0,0,0,0,0,
0,0,0,0,0,0,0,0,0,0,0,0,0,0,0,0,
0,0,0,0,0,0,0,0,0,0,0,0,0,0,0,0,
0,0,0,0,0,0,0,0,0,0,0,0,0,0,0,0,
0,0,0,0,0,0,0,0,0,0,0,0,0,0,0,0,
0,0,0,0,0,0,0,0,0,0,0,0,0,0,0,0
</chunk>
  </data>
 </layer>
 <layer id="5" name="Floor" width="75" height="18">
  <data encoding="csv">
   <chunk x="0" y="0" width="16" height="16">
0,0,0,0,0,0,0,0,0,0,0,0,0,0,0,0,
0,0,0,0,0,0,0,0,0,0,0,0,0,0,0,0,
0,0,0,0,0,0,0,0,0,0,0,0,0,0,0,0,
0,0,0,0,0,0,0,0,0,0,0,0,0,0,0,0,
0,0,0,0,0,0,0,0,0,0,0,0,0,0,0,0,
0,0,0,0,0,0,0,0,0,0,0,0,0,0,0,0,
0,0,0,0,0,0,0,0,0,0,0,0,0,0,0,0,
0,0,0,0,0,0,0,0,0,0,0,0,0,0,0,0,
0,0,0,0,0,0,14,14,14,14,14,14,14,14,14,14,
0,0,0,0,0,0,14,14,14,14,14,14,14,14,14,14,
0,0,0,0,0,0,15,15,15,15,15,15,15,15,15,15,
0,0,0,0,0,0,16,16,16,16,16,16,16,16,16,16,
0,0,0,0,0,0,0,0,0,0,0,0,0,0,0,0,
0,0,0,0,0,0,0,0,0,0,0,0,0,0,0,0,
0,0,0,0,0,0,0,0,0,0,0,0,0,0,0,0,
0,0,0,0,0,0,0,0,0,0,0,0,0,0,0,0
</chunk>
   <chunk x="16" y="0" width="16" height="16">
0,0,0,0,0,0,0,0,0,0,0,0,0,0,0,0,
0,0,0,0,0,0,0,0,0,0,0,0,0,0,0,0,
0,0,0,0,0,0,0,0,0,0,0,0,0,0,0,0,
0,0,0,0,0,0,0,0,0,0,0,0,0,0,0,0,
0,0,0,0,0,0,0,0,0,0,0,0,0,0,0,0,
0,0,0,0,0,0,0,0,0,0,0,0,0,0,0,0,
0,0,0,0,0,0,0,0,0,0,0,0,0,0,0,0,
0,0,0,0,0,0,0,0,0,0,0,0,0,0,0,0,
14,14,14,14,14,14,14,14,14,14,14,14,14,14,14,14,
14,14,14,14,14,14,14,14,14,14,14,14,14,14,14,14,
15,15,15,15,15,15,15,15,15,15,15,15,15,15,15,15,
16,16,16,16,16,16,16,16,16,16,16,16,16,16,16,16,
0,0,0,0,0,0,0,0,0,0,0,0,0,0,0,0,
0,0,0,0,0,0,0,0,0,0,0,0,0,0,0,0,
0,0,0,0,0,0,0,0,0,0,0,0,0,0,0,0,
0,0,0,0,0,0,0,0,0,0,0,0,0,0,0,0
</chunk>
   <chunk x="32" y="0" width="16" height="16">
0,0,0,0,0,0,0,0,0,0,0,0,0,0,0,0,
0,0,0,0,0,0,0,0,0,0,0,0,0,0,0,0,
0,0,0,0,0,0,0,0,0,0,0,0,0,0,0,0,
0,0,0,0,0,0,0,0,0,0,0,0,0,0,0,0,
0,0,0,0,0,0,0,0,0,0,0,0,0,0,0,0,
0,0,0,0,0,0,0,0,0,0,0,0,0,0,0,0,
0,0,0,0,0,0,0,0,0,0,0,0,0,0,0,0,
0,0,0,0,0,0,0,0,0,0,0,0,0,0,0,0,
14,14,14,14,14,14,14,14,14,14,14,14,14,14,14,14,
14,14,14,14,14,14,14,14,14,14,14,14,14,14,14,14,
15,15,15,15,15,15,15,15,15,15,15,15,15,15,15,15,
16,16,16,16,16,16,16,16,16,16,16,16,16,16,16,16,
0,0,0,0,0,0,0,0,0,0,0,0,0,0,0,0,
0,0,0,0,0,0,0,0,0,0,0,0,0,0,0,0,
0,0,0,0,0,0,0,0,0,0,0,0,0,0,0,0,
0,0,0,0,0,0,0,0,0,0,0,0,0,0,0,0
</chunk>
   <chunk x="48" y="0" width="16" height="16">
0,0,0,0,0,0,0,0,0,0,0,0,0,0,0,0,
0,0,0,0,0,0,0,0,0,0,0,0,0,0,0,0,
0,0,0,0,0,0,0,0,0,0,0,0,0,0,0,0,
0,0,0,0,0,0,0,0,0,0,0,0,0,0,0,0,
0,0,0,0,0,0,0,0,0,0,0,0,0,0,0,0,
0,0,0,0,0,0,0,0,0,0,0,0,0,0,0,0,
0,0,0,0,0,0,0,0,0,0,0,0,0,0,0,0,
0,0,0,0,0,0,0,0,0,0,0,0,0,0,0,0,
14,14,14,14,14,14,14,14,14,14,14,14,14,14,14,14,
14,14,14,14,14,14,14,14,14,14,14,14,14,14,14,14,
15,15,15,15,15,15,15,15,15,15,15,15,15,15,15,15,
16,16,16,16,16,16,16,16,16,16,16,16,16,16,16,16,
0,0,0,0,0,0,0,0,0,0,0,0,0,0,0,0,
0,0,0,0,0,0,0,0,0,0,0,0,0,0,0,0,
0,0,0,0,0,0,0,0,0,0,0,0,0,0,0,0,
0,0,0,0,0,0,0,0,0,0,0,0,0,0,0,0
</chunk>
   <chunk x="64" y="0" width="16" height="16">
0,0,0,0,0,0,0,0,0,0,0,0,0,0,0,0,
0,0,0,0,0,0,0,0,0,0,0,0,0,0,0,0,
0,0,0,0,0,0,0,0,0,0,0,0,0,0,0,0,
0,0,0,0,0,0,0,0,0,0,0,0,0,0,0,0,
0,0,0,0,0,0,0,0,0,0,0,0,0,0,0,0,
0,0,0,0,0,0,0,0,0,0,0,0,0,0,0,0,
0,0,0,0,0,0,0,0,0,0,0,0,0,0,0,0,
0,0,0,0,0,0,0,0,0,0,0,0,0,0,0,0,
14,14,14,14,14,14,14,14,14,14,14,0,0,0,0,0,
14,14,14,14,14,14,14,14,14,14,14,0,0,0,0,0,
15,15,15,15,15,15,15,15,15,15,15,0,0,0,0,0,
16,16,16,16,16,16,16,16,16,16,16,0,0,0,0,0,
0,0,0,0,0,0,0,0,0,0,0,0,0,0,0,0,
0,0,0,0,0,0,0,0,0,0,0,0,0,0,0,0,
0,0,0,0,0,0,0,0,0,0,0,0,0,0,0,0,
0,0,0,0,0,0,0,0,0,0,0,0,0,0,0,0
</chunk>
  </data>
 </layer>
 <layer id="6" name="FarSeats" width="75" height="18">
  <data encoding="csv">
   <chunk x="0" y="0" width="16" height="16">
0,0,0,0,0,0,0,0,0,0,0,0,0,0,0,0,
0,0,0,0,0,0,0,0,0,0,0,0,0,0,0,0,
0,0,0,0,0,0,0,0,0,0,0,0,0,0,0,0,
0,0,0,0,0,0,0,0,0,0,0,0,0,0,0,0,
0,0,0,0,0,0,0,0,0,0,0,0,0,0,0,0,
0,0,0,0,0,0,0,0,0,0,0,0,0,0,0,0,
0,0,0,0,0,0,0,0,0,0,0,17,0,17,0,19,
0,0,0,0,0,0,0,0,0,0,0,18,0,18,0,20,
0,0,0,0,0,0,0,0,0,0,0,0,0,0,0,0,
0,0,0,0,0,0,0,0,0,0,0,0,0,0,0,0,
0,0,0,0,0,0,0,0,0,0,0,0,0,0,0,0,
0,0,0,0,0,0,0,0,0,0,0,0,0,0,0,0,
0,0,0,0,0,0,0,0,0,0,0,0,0,0,0,0,
0,0,0,0,0,0,0,0,0,0,0,0,0,0,0,0,
0,0,0,0,0,0,0,0,0,0,0,0,0,0,0,0,
0,0,0,0,0,0,0,0,0,0,0,0,0,0,0,0
</chunk>
   <chunk x="16" y="0" width="16" height="16">
0,0,0,0,0,0,0,0,0,0,0,0,0,0,0,0,
0,0,0,0,0,0,0,0,0,0,0,0,0,0,0,0,
0,0,0,0,0,0,0,0,0,0,0,0,0,0,0,0,
0,0,0,0,0,0,0,0,0,0,0,0,0,0,0,0,
0,0,0,0,0,0,0,0,0,0,0,0,0,0,0,0,
0,0,0,0,0,0,0,0,0,0,0,0,0,0,0,0,
0,19,0,19,0,19,0,17,0,17,0,17,0,17,0,19,
0,20,0,20,0,20,0,18,0,18,0,18,0,18,0,20,
0,0,0,0,0,0,0,0,0,0,0,0,0,0,0,0,
0,0,0,0,0,0,0,0,0,0,0,0,0,0,0,0,
0,0,0,0,0,0,0,0,0,0,0,0,0,0,0,0,
0,0,0,0,0,0,0,0,0,0,0,0,0,0,0,0,
0,0,0,0,0,0,0,0,0,0,0,0,0,0,0,0,
0,0,0,0,0,0,0,0,0,0,0,0,0,0,0,0,
0,0,0,0,0,0,0,0,0,0,0,0,0,0,0,0,
0,0,0,0,0,0,0,0,0,0,0,0,0,0,0,0
</chunk>
   <chunk x="32" y="0" width="16" height="16">
0,0,0,0,0,0,0,0,0,0,0,0,0,0,0,0,
0,0,0,0,0,0,0,0,0,0,0,0,0,0,0,0,
0,0,0,0,0,0,0,0,0,0,0,0,0,0,0,0,
0,0,0,0,0,0,0,0,0,0,0,0,0,0,0,0,
0,0,0,0,0,0,0,0,0,0,0,0,0,0,0,0,
0,0,0,0,0,0,0,0,0,0,0,0,0,0,0,0,
0,19,0,19,0,19,0,17,0,17,0,17,0,17,0,19,
0,20,0,20,0,20,0,18,0,18,0,18,0,18,0,20,
0,0,0,0,0,0,0,0,0,0,0,0,0,0,0,0,
0,0,0,0,0,0,0,0,0,0,0,0,0,0,0,0,
0,0,0,0,0,0,0,0,0,0,0,0,0,0,0,0,
0,0,0,0,0,0,0,0,0,0,0,0,0,0,0,0,
0,0,0,0,0,0,0,0,0,0,0,0,0,0,0,0,
0,0,0,0,0,0,0,0,0,0,0,0,0,0,0,0,
0,0,0,0,0,0,0,0,0,0,0,0,0,0,0,0,
0,0,0,0,0,0,0,0,0,0,0,0,0,0,0,0
</chunk>
   <chunk x="48" y="0" width="16" height="16">
0,0,0,0,0,0,0,0,0,0,0,0,0,0,0,0,
0,0,0,0,0,0,0,0,0,0,0,0,0,0,0,0,
0,0,0,0,0,0,0,0,0,0,0,0,0,0,0,0,
0,0,0,0,0,0,0,0,0,0,0,0,0,0,0,0,
0,0,0,0,0,0,0,0,0,0,0,0,0,0,0,0,
0,0,0,0,0,0,0,0,0,0,0,0,0,0,0,0,
0,19,0,19,0,19,0,17,0,17,0,17,0,17,0,19,
0,20,0,20,0,20,0,18,0,18,0,18,0,18,0,20,
0,0,0,0,0,0,0,0,0,0,0,0,0,0,0,0,
0,0,0,0,0,0,0,0,0,0,0,0,0,0,0,0,
0,0,0,0,0,0,0,0,0,0,0,0,0,0,0,0,
0,0,0,0,0,0,0,0,0,0,0,0,0,0,0,0,
0,0,0,0,0,0,0,0,0,0,0,0,0,0,0,0,
0,0,0,0,0,0,0,0,0,0,0,0,0,0,0,0,
0,0,0,0,0,0,0,0,0,0,0,0,0,0,0,0,
0,0,0,0,0,0,0,0,0,0,0,0,0,0,0,0
</chunk>
   <chunk x="64" y="0" width="16" height="16">
0,0,0,0,0,0,0,0,0,0,0,0,0,0,0,0,
0,0,0,0,0,0,0,0,0,0,0,0,0,0,0,0,
0,0,0,0,0,0,0,0,0,0,0,0,0,0,0,0,
0,0,0,0,0,0,0,0,0,0,0,0,0,0,0,0,
0,0,0,0,0,0,0,0,0,0,0,0,0,0,0,0,
0,0,0,0,0,0,0,0,0,0,0,0,0,0,0,0,
0,19,0,0,0,0,0,0,0,0,0,0,0,0,0,0,
0,20,0,0,0,0,0,0,0,0,0,0,0,0,0,0,
0,0,0,0,0,0,0,0,0,0,0,0,0,0,0,0,
0,0,0,0,0,0,0,0,0,0,0,0,0,0,0,0,
0,0,0,0,0,0,0,0,0,0,0,0,0,0,0,0,
0,0,0,0,0,0,0,0,0,0,0,0,0,0,0,0,
0,0,0,0,0,0,0,0,0,0,0,0,0,0,0,0,
0,0,0,0,0,0,0,0,0,0,0,0,0,0,0,0,
0,0,0,0,0,0,0,0,0,0,0,0,0,0,0,0,
0,0,0,0,0,0,0,0,0,0,0,0,0,0,0,0
</chunk>
  </data>
 </layer>
 <layer id="7" name="Furniture" width="75" height="18">
  <data encoding="csv">
   <chunk x="0" y="0" width="16" height="16">
0,0,0,0,0,0,0,0,0,0,0,0,0,0,0,0,
0,0,0,0,0,0,0,0,0,0,0,0,0,0,0,0,
0,0,0,0,0,0,0,0,0,0,0,0,0,0,0,0,
0,0,0,0,0,0,0,0,0,0,0,0,0,0,0,0,
0,0,0,0,0,0,0,0,0,0,0,0,0,0,0,0,
0,0,0,0,0,0,0,0,0,0,0,0,0,0,0,0,
0,0,0,0,0,0,0,12,12,0,0,0,25,0,0,0,
0,0,0,0,0,0,0,13,13,0,0,0,26,0,0,0,
0,0,0,0,0,0,0,0,0,0,0,0,0,0,0,0,
0,0,0,0,0,0,0,0,0,0,0,0,0,0,0,0,
0,0,0,0,0,0,0,0,0,0,0,0,0,0,0,0,
0,0,0,0,0,0,0,0,0,0,0,0,0,0,0,0,
0,0,0,0,0,0,0,0,0,0,0,0,0,0,0,0,
0,0,0,0,0,0,0,0,0,0,0,0,0,0,0,0,
0,0,0,0,0,0,0,0,0,0,0,0,0,0,0,0,
0,0,0,0,0,0,0,0,0,0,0,0,0,0,0,0
</chunk>
   <chunk x="16" y="0" width="16" height="16">
0,0,0,0,0,0,0,0,0,0,0,0,0,0,0,0,
0,0,0,0,0,0,0,0,0,0,0,0,0,0,0,0,
0,0,0,0,0,0,0,0,0,0,0,0,0,0,0,0,
0,0,0,0,0,0,0,0,0,0,0,0,0,0,0,0,
0,0,0,0,0,0,0,0,0,0,0,0,0,0,0,0,
0,0,0,0,0,0,0,0,0,0,0,0,0,0,0,0,
0,0,0,0,0,0,0,0,25,0,0,0,0,0,0,0,
0,0,0,0,0,0,0,0,26,0,0,0,0,0,0,0,
0,0,0,0,0,0,0,0,0,0,0,0,0,0,0,0,
0,0,0,0,0,0,0,0,0,0,0,0,0,0,0,0,
0,0,0,0,0,0,0,0,0,0,0,0,0,0,0,0,
0,0,0,0,0,0,0,0,0,0,0,0,0,0,0,0,
0,0,0,0,0,0,0,0,0,0,0,0,0,0,0,0,
0,0,0,0,0,0,0,0,0,0,0,0,0,0,0,0,
0,0,0,0,0,0,0,0,0,0,0,0,0,0,0,0,
0,0,0,0,0,0,0,0,0,0,0,0,0,0,0,0
</chunk>
   <chunk x="32" y="0" width="16" height="16">
0,0,0,0,0,0,0,0,0,0,0,0,0,0,0,0,
0,0,0,0,0,0,0,0,0,0,0,0,0,0,0,0,
0,0,0,0,0,0,0,0,0,0,0,0,0,0,0,0,
0,0,0,0,0,0,0,0,0,0,0,0,0,0,0,0,
0,0,0,0,0,0,0,0,0,0,0,0,0,0,0,0,
0,0,0,0,0,0,0,0,0,0,0,0,0,0,0,0,
0,0,0,0,25,0,0,0,0,0,0,0,0,0,0,0,
0,0,0,0,26,0,0,0,0,0,0,0,0,0,0,0,
0,0,0,0,0,0,0,0,0,0,0,0,0,0,0,0,
0,0,0,0,0,0,0,0,0,0,0,0,0,0,0,0,
0,0,0,0,0,0,0,0,0,0,0,0,0,0,0,0,
0,0,0,0,0,0,0,0,0,0,0,0,0,0,0,0,
0,0,0,0,0,0,0,0,0,0,0,0,0,0,0,0,
0,0,0,0,0,0,0,0,0,0,0,0,0,0,0,0,
0,0,0,0,0,0,0,0,0,0,0,0,0,0,0,0,
0,0,0,0,0,0,0,0,0,0,0,0,0,0,0,0
</chunk>
   <chunk x="48" y="0" width="16" height="16">
0,0,0,0,0,0,0,0,0,0,0,0,0,0,0,0,
0,0,0,0,0,0,0,0,0,0,0,0,0,0,0,0,
0,0,0,0,0,0,0,0,0,0,0,0,0,0,0,0,
0,0,0,0,0,0,0,0,0,0,0,0,0,0,0,0,
0,0,0,0,0,0,0,0,0,0,0,0,0,0,0,0,
0,0,0,0,0,0,0,0,0,0,0,0,0,0,0,0,
25,0,0,0,0,0,0,0,0,0,0,0,25,0,0,0,
26,0,0,0,0,0,0,0,0,0,0,0,26,0,0,0,
0,0,0,0,0,0,0,0,0,0,0,0,0,0,0,0,
0,0,0,0,0,0,0,0,0,0,0,0,0,0,0,0,
0,0,0,0,0,0,0,0,0,0,0,0,0,0,0,0,
0,0,0,0,0,0,0,0,0,0,0,0,0,0,0,0,
0,0,0,0,0,0,0,0,0,0,0,0,0,0,0,0,
0,0,0,0,0,0,0,0,0,0,0,0,0,0,0,0,
0,0,0,0,0,0,0,0,0,0,0,0,0,0,0,0,
0,0,0,0,0,0,0,0,0,0,0,0,0,0,0,0
</chunk>
   <chunk x="64" y="0" width="16" height="16">
0,0,0,0,0,0,0,0,0,0,0,0,0,0,0,0,
0,0,0,0,0,0,0,0,0,0,0,0,0,0,0,0,
0,0,0,0,0,0,0,0,0,0,0,0,0,0,0,0,
0,0,0,0,0,0,0,0,0,0,0,0,0,0,0,0,
0,0,0,0,0,0,0,0,0,0,0,0,0,0,0,0,
0,0,0,0,0,0,0,0,0,0,0,0,0,0,0,0,
0,0,0,0,29,29,29,0,33,12,0,0,0,0,0,0,
0,0,0,0,30,30,30,0,34,13,0,0,0,0,0,0,
0,0,0,0,0,0,0,0,0,0,0,0,0,0,0,0,
0,0,0,0,0,0,0,0,0,0,0,0,0,0,0,0,
0,0,0,0,0,0,0,0,0,0,0,0,0,0,0,0,
0,0,0,0,0,0,0,0,0,0,0,0,0,0,0,0,
0,0,0,0,0,0,0,0,0,0,0,0,0,0,0,0,
0,0,0,0,0,0,0,0,0,0,0,0,0,0,0,0,
0,0,0,0,0,0,0,0,0,0,0,0,0,0,0,0,
0,0,0,0,0,0,0,0,0,0,0,0,0,0,0,0
</chunk>
  </data>
 </layer>
 <layer id="8" name="NearSeats" width="75" height="18">
  <data encoding="csv">
   <chunk x="0" y="0" width="16" height="16">
0,0,0,0,0,0,0,0,0,0,0,0,0,0,0,0,
0,0,0,0,0,0,0,0,0,0,0,0,0,0,0,0,
0,0,0,0,0,0,0,0,0,0,0,0,0,0,0,0,
0,0,0,0,0,0,0,0,0,0,0,0,0,0,0,0,
0,0,0,0,0,0,0,0,0,0,0,0,0,0,0,0,
0,0,0,0,0,0,0,0,0,0,0,0,0,0,0,0,
0,0,0,0,0,0,0,0,0,0,0,0,0,0,0,0,
0,0,0,0,0,0,0,0,0,0,0,0,0,0,0,0,
0,0,0,0,0,0,0,0,0,0,0,0,0,0,0,0,
0,0,0,0,0,0,0,0,0,0,0,21,0,21,0,23,
0,0,0,0,0,0,0,0,0,0,0,22,0,22,0,24,
0,0,0,0,0,0,0,0,0,0,0,0,0,0,0,0,
0,0,0,0,0,0,0,0,0,0,0,0,0,0,0,0,
0,0,0,0,0,0,0,0,0,0,0,0,0,0,0,0,
0,0,0,0,0,0,0,0,0,0,0,0,0,0,0,0,
0,0,0,0,0,0,0,0,0,0,0,0,0,0,0,0
</chunk>
   <chunk x="16" y="0" width="16" height="16">
0,0,0,0,0,0,0,0,0,0,0,0,0,0,0,0,
0,0,0,0,0,0,0,0,0,0,0,0,0,0,0,0,
0,0,0,0,0,0,0,0,0,0,0,0,0,0,0,0,
0,0,0,0,0,0,0,0,0,0,0,0,0,0,0,0,
0,0,0,0,0,0,0,0,0,0,0,0,0,0,0,0,
0,0,0,0,0,0,0,0,0,0,0,0,0,0,0,0,
0,0,0,0,0,0,0,0,0,0,0,0,0,0,0,0,
0,0,0,0,0,0,0,0,0,0,0,0,0,0,0,0,
0,0,0,0,0,0,0,0,0,0,0,0,0,0,0,0,
0,23,0,23,0,23,0,21,0,21,0,21,0,21,0,23,
0,24,0,24,0,24,0,22,0,22,0,22,0,22,0,24,
0,0,0,0,0,0,0,0,0,0,0,0,0,0,0,0,
0,0,0,0,0,0,0,0,0,0,0,0,0,0,0,0,
0,0,0,0,0,0,0,0,0,0,0,0,0,0,0,0,
0,0,0,0,0,0,0,0,0,0,0,0,0,0,0,0,
0,0,0,0,0,0,0,0,0,0,0,0,0,0,0,0
</chunk>
   <chunk x="32" y="0" width="16" height="16">
0,0,0,0,0,0,0,0,0,0,0,0,0,0,0,0,
0,0,0,0,0,0,0,0,0,0,0,0,0,0,0,0,
0,0,0,0,0,0,0,0,0,0,0,0,0,0,0,0,
0,0,0,0,0,0,0,0,0,0,0,0,0,0,0,0,
0,0,0,0,0,0,0,0,0,0,0,0,0,0,0,0,
0,0,0,0,0,0,0,0,0,0,0,0,0,0,0,0,
0,0,0,0,0,0,0,0,0,0,0,0,0,0,0,0,
0,0,0,0,0,0,0,0,0,0,0,0,0,0,0,0,
0,0,0,0,0,0,0,0,0,0,0,0,0,0,0,0,
0,23,0,23,0,23,0,21,0,21,0,21,0,21,0,23,
0,24,0,24,0,24,0,22,0,22,0,22,0,22,0,24,
0,0,0,0,0,0,0,0,0,0,0,0,0,0,0,0,
0,0,0,0,0,0,0,0,0,0,0,0,0,0,0,0,
0,0,0,0,0,0,0,0,0,0,0,0,0,0,0,0,
0,0,0,0,0,0,0,0,0,0,0,0,0,0,0,0,
0,0,0,0,0,0,0,0,0,0,0,0,0,0,0,0
</chunk>
   <chunk x="48" y="0" width="16" height="16">
0,0,0,0,0,0,0,0,0,0,0,0,0,0,0,0,
0,0,0,0,0,0,0,0,0,0,0,0,0,0,0,0,
0,0,0,0,0,0,0,0,0,0,0,0,0,0,0,0,
0,0,0,0,0,0,0,0,0,0,0,0,0,0,0,0,
0,0,0,0,0,0,0,0,0,0,0,0,0,0,0,0,
0,0,0,0,0,0,0,0,0,0,0,0,0,0,0,0,
0,0,0,0,0,0,0,0,0,0,0,0,0,0,0,0,
0,0,0,0,0,0,0,0,0,0,0,0,0,0,0,0,
0,0,0,0,0,0,0,0,0,0,0,0,0,0,0,0,
0,23,0,23,0,23,0,21,0,21,0,21,0,21,0,23,
0,24,0,24,0,24,0,22,0,22,0,22,0,22,0,24,
0,0,0,0,0,0,0,0,0,0,0,0,0,0,0,0,
0,0,0,0,0,0,0,0,0,0,0,0,0,0,0,0,
0,0,0,0,0,0,0,0,0,0,0,0,0,0,0,0,
0,0,0,0,0,0,0,0,0,0,0,0,0,0,0,0,
0,0,0,0,0,0,0,0,0,0,0,0,0,0,0,0
</chunk>
   <chunk x="64" y="0" width="16" height="16">
0,0,0,0,0,0,0,0,0,0,0,0,0,0,0,0,
0,0,0,0,0,0,0,0,0,0,0,0,0,0,0,0,
0,0,0,0,0,0,0,0,0,0,0,0,0,0,0,0,
0,0,0,0,0,0,0,0,0,0,0,0,0,0,0,0,
0,0,0,0,0,0,0,0,0,0,0,0,0,0,0,0,
0,0,0,0,0,0,0,0,0,0,0,0,0,0,0,0,
0,0,0,0,0,0,0,0,0,0,0,0,0,0,0,0,
0,0,0,0,0,0,0,0,0,0,0,0,0,0,0,0,
0,0,0,0,0,0,0,0,0,0,0,0,0,0,0,0,
0,23,0,0,0,0,0,0,0,0,0,0,0,0,0,0,
0,24,0,0,0,0,0,0,0,0,0,0,0,0,0,0,
0,0,0,0,0,0,0,0,0,0,0,0,0,0,0,0,
0,0,0,0,0,0,0,0,0,0,0,0,0,0,0,0,
0,0,0,0,0,0,0,0,0,0,0,0,0,0,0,0,
0,0,0,0,0,0,0,0,0,0,0,0,0,0,0,0,
0,0,0,0,0,0,0,0,0,0,0,0,0,0,0,0
</chunk>
  </data>
 </layer>
 <layer id="9" name="Accents" width="75" height="18">
  <data encoding="csv">
   <chunk x="-16" y="0" width="16" height="16">
0,0,0,0,0,0,0,0,0,0,0,0,95,0,0,0,
0,0,0,0,0,0,0,0,0,0,0,0,95,0,0,0,
0,0,0,0,0,0,0,0,0,0,0,0,95,0,0,0,
0,0,0,0,0,0,0,0,0,0,0,0,95,0,0,0,
0,0,0,0,0,0,0,0,0,0,0,74,95,0,0,0,
0,0,0,0,0,0,0,0,0,0,0,0,95,0,89,0,
0,0,0,0,0,0,0,0,0,0,0,0,95,0,0,0,
0,0,0,0,0,0,0,0,0,0,0,0,95,0,0,0,
0,0,0,0,0,0,0,0,0,0,0,0,0,0,0,0,
0,0,0,0,0,0,0,0,0,0,0,0,0,0,0,0,
0,0,0,0,0,0,0,0,0,0,0,0,0,0,0,0,
0,0,0,0,0,0,0,0,0,0,0,0,0,0,0,0,
0,0,0,0,0,0,0,0,0,0,0,0,0,0,0,0,
0,0,0,0,0,0,0,0,0,0,0,0,0,0,0,0,
0,0,0,0,0,0,0,0,0,0,0,0,0,0,0,0,
0,0,0,0,0,0,0,0,0,0,0,0,0,0,0,0
</chunk>
   <chunk x="0" y="0" width="16" height="16">
0,0,0,0,0,0,0,0,0,0,0,0,0,0,0,0,
0,0,0,0,0,0,0,0,0,0,0,0,0,0,0,0,
0,0,0,0,0,0,0,0,0,0,0,0,0,0,0,0,
0,0,0,0,0,0,0,0,0,0,0,0,5,0,0,0,
0,0,0,0,0,0,32,0,47,0,0,0,0,0,0,0,
0,0,0,0,0,0,0,0,0,0,0,0,0,0,0,27,
0,0,0,0,0,0,0,0,0,35,0,0,42,0,0,0,
0,0,0,0,0,0,0,0,0,0,31,0,0,0,0,0,
0,0,0,0,0,0,0,0,0,0,0,0,0,0,0,0,
0,0,0,0,0,0,0,0,0,0,0,0,0,0,0,0,
0,0,0,0,0,0,0,0,0,0,0,0,0,0,0,0,
0,0,0,0,0,0,0,0,0,0,0,0,0,0,0,0,
0,0,0,0,0,0,0,0,0,0,0,0,0,0,0,0,
0,0,0,0,0,0,0,0,0,0,0,0,0,0,0,0,
0,0,0,0,0,0,0,0,0,0,0,0,0,0,0,66,
0,0,0,0,0,0,0,0,0,0,0,0,0,0,0,0
</chunk>
   <chunk x="16" y="0" width="16" height="16">
0,0,0,0,0,0,0,0,0,0,0,0,0,0,0,0,
0,0,0,0,0,0,0,0,0,0,0,0,0,0,0,0,
0,0,0,0,0,0,0,0,0,0,0,0,0,0,0,0,
3,0,0,0,3,0,0,0,3,0,0,0,3,0,0,0,
0,0,0,0,0,0,0,0,0,0,0,0,0,0,0,0,
0,27,0,0,45,0,0,0,0,0,0,27,0,27,0,0,
0,0,0,0,0,0,0,0,43,0,0,0,0,0,0,0,
28,0,0,0,0,0,0,0,0,0,0,0,0,0,0,0,
0,0,0,0,0,0,0,0,48,0,0,0,0,0,0,0,
0,0,0,0,0,0,0,0,0,0,0,0,0,0,0,0,
0,0,0,0,0,0,0,0,0,0,0,0,0,0,0,0,
0,0,0,0,0,0,0,0,0,0,0,0,0,0,0,0,
0,0,0,0,0,0,0,0,0,83,0,0,0,0,0,0,
0,0,0,0,0,0,0,0,0,0,0,0,0,0,65,0,
66,0,0,0,0,0,0,0,0,0,0,0,0,0,0,0,
0,0,0,0,0,0,0,0,0,0,0,0,0,0,0,0
</chunk>
   <chunk x="32" y="0" width="16" height="16">
0,0,0,0,0,0,0,0,0,0,0,0,0,0,0,0,
0,0,0,0,0,0,0,0,0,0,0,0,0,0,0,0,
0,0,0,0,0,0,0,0,0,0,0,0,0,0,0,0,
5,0,0,0,3,0,0,0,3,0,0,0,3,0,0,0,
0,0,0,0,0,0,0,0,0,0,0,0,0,0,0,0,
0,0,0,0,45,0,0,27,0,27,0,0,0,0,0,0,
0,0,0,0,42,0,0,0,0,0,0,0,0,0,0,0,
28,0,0,0,0,0,0,0,0,0,0,0,0,0,0,0,
0,0,0,0,0,0,0,0,0,0,0,0,48,0,0,0,
0,0,0,0,0,0,0,0,0,0,0,0,0,0,0,0,
0,0,0,0,0,0,0,0,0,0,0,0,0,0,0,0,
0,0,0,0,0,0,0,0,0,0,0,0,0,0,0,0,
0,0,0,0,0,0,0,0,0,0,0,0,0,0,0,0,
0,0,0,0,0,0,0,0,0,0,0,0,65,0,0,0,
0,0,0,0,0,0,0,0,0,0,0,0,0,0,0,0,
0,0,0,0,0,0,0,0,0,0,0,0,0,0,0,0
</chunk>
   <chunk x="48" y="0" width="16" height="16">
0,0,0,0,0,0,0,0,0,0,0,0,0,0,0,0,
0,0,0,0,0,0,0,0,0,0,0,0,0,0,0,0,
0,0,0,0,0,0,0,0,0,0,0,0,0,0,0,0,
3,0,0,0,5,0,0,0,3,0,0,0,3,0,0,0,
0,0,0,0,0,0,0,0,0,0,0,0,0,0,0,0,
0,0,0,27,45,27,0,0,0,0,0,0,0,0,0,27,
43,0,0,0,0,0,0,0,0,0,0,0,42,0,0,0,
0,0,0,0,0,0,0,0,0,0,0,0,0,0,0,0,
0,0,0,0,0,0,0,0,0,0,0,0,0,0,0,0,
0,0,0,0,0,0,0,0,0,0,0,0,0,0,0,0,
0,0,0,0,0,0,0,0,0,0,0,0,0,0,0,0,
0,0,0,0,0,0,0,0,0,0,0,0,0,0,0,0,
0,0,0,83,0,0,0,0,0,0,0,0,0,0,0,0,
0,0,0,0,0,65,0,0,0,0,0,0,0,0,0,0,
0,0,0,0,0,0,0,0,0,0,0,0,66,66,0,0,
0,0,0,0,0,0,0,0,0,0,0,0,0,0,0,0
</chunk>
   <chunk x="64" y="0" width="16" height="16">
0,0,0,0,0,0,0,0,0,0,0,0,0,0,0,0,
0,0,0,0,0,0,0,0,0,0,0,0,0,0,0,0,
0,0,0,0,0,0,52,0,0,0,62,0,0,0,0,0,
3,0,0,0,0,0,0,0,0,0,0,0,0,0,0,0,
0,0,0,0,47,0,0,0,32,0,0,0,0,0,0,0,
0,27,0,0,0,0,0,0,0,0,35,0,0,0,0,0,
0,0,0,31,0,0,0,0,0,0,0,0,0,0,0,0,
28,0,0,0,0,0,0,0,0,0,0,0,0,0,0,0,
48,0,0,0,28,0,0,0,0,0,0,0,0,0,0,0,
0,0,0,0,0,0,0,0,0,0,0,0,0,0,0,0,
0,0,0,0,0,0,0,0,0,0,0,0,0,0,0,0,
0,0,0,0,0,0,0,0,0,0,0,0,0,0,0,0,
0,0,0,0,0,0,0,0,0,0,78,0,0,0,0,0,
0,0,0,0,0,0,0,0,0,0,0,63,0,0,0,0,
0,0,0,0,0,0,0,0,0,0,0,0,0,0,0,0,
0,0,0,0,0,0,0,0,0,0,0,0,0,0,0,0
</chunk>
  </data>
 </layer>
 <objectgroup id="10" name="WalkableZones" visible="0">
  <object id="1" name="origin_platform" type="Walkable" x="-384" y="512" width="384" height="256"/>
  <object id="2" name="boarding_vestibule" type="Walkable" x="384" y="512" width="320" height="256"/>
  <object id="3" name="central_aisle" type="Walkable" x="704" y="512" width="3584" height="64"/>
  <object id="4" name="service_zone" type="Walkable" x="4288" y="512" width="512" height="256"/>
 </objectgroup>
 <objectgroup id="11" name="PassengerSeats" visible="0">
  <object id="5" name="bay_01_far_L" type="FarSeat" x="736" y="480">
   <point/>
  </object>
  <object id="6" name="bay_01_near_L" type="NearSeat" x="736" y="672">
   <point/>
  </object>
  <object id="7" name="bay_01_far_R" type="FarSeat" x="864" y="480">
   <point/>
  </object>
  <object id="8" name="bay_01_near_R" type="NearSeat" x="864" y="672">
   <point/>
  </object>
  <object id="9" name="bay_02_far_L" type="FarSeat" x="992" y="480">
   <point/>
  </object>
  <object id="10" name="bay_02_near_L" type="NearSeat" x="992" y="672">
   <point/>
  </object>
  <object id="11" name="bay_02_far_R" type="FarSeat" x="1120" y="480">
   <point/>
  </object>
  <object id="12" name="bay_02_near_R" type="NearSeat" x="1120" y="672">
   <point/>
  </object>
  <object id="13" name="bay_03_far_L" type="FarSeat" x="1248" y="480">
   <point/>
  </object>
  <object id="14" name="bay_03_near_L" type="NearSeat" x="1248" y="672">
   <point/>
  </object>
  <object id="15" name="bay_03_far_R" type="FarSeat" x="1376" y="480">
   <point/>
  </object>
  <object id="16" name="bay_03_near_R" type="NearSeat" x="1376" y="672">
   <point/>
  </object>
  <object id="17" name="bay_04_far_L" type="FarSeat" x="1504" y="480">
   <point/>
  </object>
  <object id="18" name="bay_04_near_L" type="NearSeat" x="1504" y="672">
   <point/>
  </object>
  <object id="19" name="bay_04_far_R" type="FarSeat" x="1632" y="480">
   <point/>
  </object>
  <object id="20" name="bay_04_near_R" type="NearSeat" x="1632" y="672">
   <point/>
  </object>
  <object id="21" name="bay_05_far_L" type="FarSeat" x="1760" y="480">
   <point/>
  </object>
  <object id="22" name="bay_05_near_L" type="NearSeat" x="1760" y="672">
   <point/>
  </object>
  <object id="23" name="bay_05_far_R" type="FarSeat" x="1888" y="480">
   <point/>
  </object>
  <object id="24" name="bay_05_near_R" type="NearSeat" x="1888" y="672">
   <point/>
  </object>
  <object id="25" name="bay_06_far_L" type="FarSeat" x="2016" y="480">
   <point/>
  </object>
  <object id="26" name="bay_06_near_L" type="NearSeat" x="2016" y="672">
   <point/>
  </object>
  <object id="27" name="bay_06_far_R" type="FarSeat" x="2144" y="480">
   <point/>
  </object>
  <object id="28" name="bay_06_near_R" type="NearSeat" x="2144" y="672">
   <point/>
  </object>
  <object id="29" name="bay_07_far_L" type="FarSeat" x="2272" y="480">
   <point/>
  </object>
  <object id="30" name="bay_07_near_L" type="NearSeat" x="2272" y="672">
   <point/>
  </object>
  <object id="31" name="bay_07_far_R" type="FarSeat" x="2400" y="480">
   <point/>
  </object>
  <object id="32" name="bay_07_near_R" type="NearSeat" x="2400" y="672">
   <point/>
  </object>
  <object id="33" name="bay_08_far_L" type="FarSeat" x="2528" y="480">
   <point/>
  </object>
  <object id="34" name="bay_08_near_L" type="NearSeat" x="2528" y="672">
   <point/>
  </object>
  <object id="35" name="bay_08_far_R" type="FarSeat" x="2656" y="480">
   <point/>
  </object>
  <object id="36" name="bay_08_near_R" type="NearSeat" x="2656" y="672">
   <point/>
  </object>
  <object id="37" name="bay_09_far_L" type="FarSeat" x="2784" y="480">
   <point/>
  </object>
  <object id="38" name="bay_09_near_L" type="NearSeat" x="2784" y="672">
   <point/>
  </object>
  <object id="39" name="bay_09_far_R" type="FarSeat" x="2912" y="480">
   <point/>
  </object>
  <object id="40" name="bay_09_near_R" type="NearSeat" x="2912" y="672">
   <point/>
  </object>
  <object id="41" name="bay_10_far_L" type="FarSeat" x="3040" y="480">
   <point/>
  </object>
  <object id="42" name="bay_10_near_L" type="NearSeat" x="3040" y="672">
   <point/>
  </object>
  <object id="43" name="bay_10_far_R" type="FarSeat" x="3168" y="480">
   <point/>
  </object>
  <object id="44" name="bay_10_near_R" type="NearSeat" x="3168" y="672">
   <point/>
  </object>
  <object id="45" name="bay_11_far_L" type="FarSeat" x="3296" y="480">
   <point/>
  </object>
  <object id="46" name="bay_11_near_L" type="NearSeat" x="3296" y="672">
   <point/>
  </object>
  <object id="47" name="bay_11_far_R" type="FarSeat" x="3424" y="480">
   <point/>
  </object>
  <object id="48" name="bay_11_near_R" type="NearSeat" x="3424" y="672">
   <point/>
  </object>
  <object id="49" name="bay_12_far_L" type="FarSeat" x="3552" y="480">
   <point/>
  </object>
  <object id="50" name="bay_12_near_L" type="NearSeat" x="3552" y="672">
   <point/>
  </object>
  <object id="51" name="bay_12_far_R" type="FarSeat" x="3680" y="480">
   <point/>
  </object>
  <object id="52" name="bay_12_near_R" type="NearSeat" x="3680" y="672">
   <point/>
  </object>
  <object id="53" name="bay_13_far_L" type="FarSeat" x="3808" y="480">
   <point/>
  </object>
  <object id="54" name="bay_13_near_L" type="NearSeat" x="3808" y="672">
   <point/>
  </object>
  <object id="55" name="bay_13_far_R" type="FarSeat" x="3936" y="480">
   <point/>
  </object>
  <object id="56" name="bay_13_near_R" type="NearSeat" x="3936" y="672">
   <point/>
  </object>
  <object id="57" name="bay_14_far_L" type="FarSeat" x="4064" y="480">
   <point/>
  </object>
  <object id="58" name="bay_14_near_L" type="NearSeat" x="4064" y="672">
   <point/>
  </object>
  <object id="59" name="bay_14_far_R" type="FarSeat" x="4192" y="480">
   <point/>
  </object>
  <object id="60" name="bay_14_near_R" type="NearSeat" x="4192" y="672">
   <point/>
  </object>
 </objectgroup>
 <objectgroup id="12" name="InteractionAnchors" visible="0">
  <object id="61" name="player_start" type="Spawn" x="-224" y="544">
   <point/>
  </object>
  <object id="62" name="journal_platform" type="ItemAnchor" x="-160" y="544">
   <point/>
  </object>
  <object id="63" name="boarding_door" type="Door" x="480" y="544">
   <point/>
  </object>
  <object id="64" name="entry_control_panel" type="Interactable" x="608" y="416">
   <point/>
  </object>
  <object id="65" name="fire_extinguisher" type="Interactable" x="4320" y="480">
   <point/>
  </object>
  <object id="66" name="service_counter" type="Interactable" x="4448" y="544">
   <point/>
  </object>
  <object id="67" name="lavatory" type="Interactable" x="4640" y="544">
   <point/>
  </object>
  <object id="68" name="technical_panel" type="Interactable" x="4768" y="416">
   <point/>
  </object>
  <object id="69" name="fire_scenario" type="ScenarioAnchor" x="2528" y="544">
   <point/>
  </object>
 </objectgroup>
 <objectgroup id="13" name="Collision" visible="0">
  <object id="70" name="bay_01_far_L" type="SeatSolid" x="704" y="384" width="64" height="128"/>
  <object id="71" name="bay_01_near_L" type="SeatSolid" x="704" y="576" width="64" height="128"/>
  <object id="72" name="bay_01_far_R" type="SeatSolid" x="832" y="384" width="64" height="128"/>
  <object id="73" name="bay_01_near_R" type="SeatSolid" x="832" y="576" width="64" height="128"/>
  <object id="74" name="bay_02_far_L" type="SeatSolid" x="960" y="384" width="64" height="128"/>
  <object id="75" name="bay_02_near_L" type="SeatSolid" x="960" y="576" width="64" height="128"/>
  <object id="76" name="bay_02_far_R" type="SeatSolid" x="1088" y="384" width="64" height="128"/>
  <object id="77" name="bay_02_near_R" type="SeatSolid" x="1088" y="576" width="64" height="128"/>
  <object id="78" name="bay_03_far_L" type="SeatSolid" x="1216" y="384" width="64" height="128"/>
  <object id="79" name="bay_03_near_L" type="SeatSolid" x="1216" y="576" width="64" height="128"/>
  <object id="80" name="bay_03_far_R" type="SeatSolid" x="1344" y="384" width="64" height="128"/>
  <object id="81" name="bay_03_near_R" type="SeatSolid" x="1344" y="576" width="64" height="128"/>
  <object id="82" name="bay_04_far_L" type="SeatSolid" x="1472" y="384" width="64" height="128"/>
  <object id="83" name="bay_04_near_L" type="SeatSolid" x="1472" y="576" width="64" height="128"/>
  <object id="84" name="bay_04_far_R" type="SeatSolid" x="1600" y="384" width="64" height="128"/>
  <object id="85" name="bay_04_near_R" type="SeatSolid" x="1600" y="576" width="64" height="128"/>
  <object id="86" name="bay_05_far_L" type="SeatSolid" x="1728" y="384" width="64" height="128"/>
  <object id="87" name="bay_05_near_L" type="SeatSolid" x="1728" y="576" width="64" height="128"/>
  <object id="88" name="bay_05_far_R" type="SeatSolid" x="1856" y="384" width="64" height="128"/>
  <object id="89" name="bay_05_near_R" type="SeatSolid" x="1856" y="576" width="64" height="128"/>
  <object id="90" name="bay_06_far_L" type="SeatSolid" x="1984" y="384" width="64" height="128"/>
  <object id="91" name="bay_06_near_L" type="SeatSolid" x="1984" y="576" width="64" height="128"/>
  <object id="92" name="bay_06_far_R" type="SeatSolid" x="2112" y="384" width="64" height="128"/>
  <object id="93" name="bay_06_near_R" type="SeatSolid" x="2112" y="576" width="64" height="128"/>
  <object id="94" name="bay_07_far_L" type="SeatSolid" x="2240" y="384" width="64" height="128"/>
  <object id="95" name="bay_07_near_L" type="SeatSolid" x="2240" y="576" width="64" height="128"/>
  <object id="96" name="bay_07_far_R" type="SeatSolid" x="2368" y="384" width="64" height="128"/>
  <object id="97" name="bay_07_near_R" type="SeatSolid" x="2368" y="576" width="64" height="128"/>
  <object id="98" name="bay_08_far_L" type="SeatSolid" x="2496" y="384" width="64" height="128"/>
  <object id="99" name="bay_08_near_L" type="SeatSolid" x="2496" y="576" width="64" height="128"/>
  <object id="100" name="bay_08_far_R" type="SeatSolid" x="2624" y="384" width="64" height="128"/>
  <object id="101" name="bay_08_near_R" type="SeatSolid" x="2624" y="576" width="64" height="128"/>
  <object id="102" name="bay_09_far_L" type="SeatSolid" x="2752" y="384" width="64" height="128"/>
  <object id="103" name="bay_09_near_L" type="SeatSolid" x="2752" y="576" width="64" height="128"/>
  <object id="104" name="bay_09_far_R" type="SeatSolid" x="2880" y="384" width="64" height="128"/>
  <object id="105" name="bay_09_near_R" type="SeatSolid" x="2880" y="576" width="64" height="128"/>
  <object id="106" name="bay_10_far_L" type="SeatSolid" x="3008" y="384" width="64" height="128"/>
  <object id="107" name="bay_10_near_L" type="SeatSolid" x="3008" y="576" width="64" height="128"/>
  <object id="108" name="bay_10_far_R" type="SeatSolid" x="3136" y="384" width="64" height="128"/>
  <object id="109" name="bay_10_near_R" type="SeatSolid" x="3136" y="576" width="64" height="128"/>
  <object id="110" name="bay_11_far_L" type="SeatSolid" x="3264" y="384" width="64" height="128"/>
  <object id="111" name="bay_11_near_L" type="SeatSolid" x="3264" y="576" width="64" height="128"/>
  <object id="112" name="bay_11_far_R" type="SeatSolid" x="3392" y="384" width="64" height="128"/>
  <object id="113" name="bay_11_near_R" type="SeatSolid" x="3392" y="576" width="64" height="128"/>
  <object id="114" name="bay_12_far_L" type="SeatSolid" x="3520" y="384" width="64" height="128"/>
  <object id="115" name="bay_12_near_L" type="SeatSolid" x="3520" y="576" width="64" height="128"/>
  <object id="116" name="bay_12_far_R" type="SeatSolid" x="3648" y="384" width="64" height="128"/>
  <object id="117" name="bay_12_near_R" type="SeatSolid" x="3648" y="576" width="64" height="128"/>
  <object id="118" name="bay_13_far_L" type="SeatSolid" x="3776" y="384" width="64" height="128"/>
  <object id="119" name="bay_13_near_L" type="SeatSolid" x="3776" y="576" width="64" height="128"/>
  <object id="120" name="bay_13_far_R" type="SeatSolid" x="3904" y="384" width="64" height="128"/>
  <object id="121" name="bay_13_near_R" type="SeatSolid" x="3904" y="576" width="64" height="128"/>
  <object id="122" name="bay_14_far_L" type="SeatSolid" x="4032" y="384" width="64" height="128"/>
  <object id="123" name="bay_14_near_L" type="SeatSolid" x="4032" y="576" width="64" height="128"/>
  <object id="124" name="bay_14_far_R" type="SeatSolid" x="4160" y="384" width="64" height="128"/>
  <object id="125" name="bay_14_near_R" type="SeatSolid" x="4160" y="576" width="64" height="128"/>
 </objectgroup>
</map>
